src/icons/icons_set_04/022-itineraire.svg

<svg height="50" viewBox="0 0 50 50" width="50" xmlns="http://www.w3.org/2000/svg"><g transform="translate(-.005 9.997143)"><path d="m31.5071429 13.0014286c0-3.84449374 1.5735032-6.67666475 4.2000421-8.25251309.9175602-.55050988 1.8769471-.89587274 2.8335382-1.08718184.5946083-.118916 1.0941715-.16173367 1.4678482-.16173367 1.9329967 0 3.5 1.56700338 3.5 3.5s-1.5670033 3.5-3.5 3.5c-.0475872 0-.3976356.0700064-.7000421.2514416-.499354.2995981-.8013864.8432307-.8013864 2.249987v9.5699864l-.1795295.5387165c-.0810054.243074-.2088078.5588833-.3930122.9273504-.2899204.5799329-.6551723 1.1567186-1.1136682 1.7069662-1.4036054 1.6844868-3.3749966 2.7598376-5.8145044 2.7598376-2.4395079 0-4.4108991-1.0753508-5.8145044-2.7598376-.458496-.5502476-.8237478-1.1270333-1.1136683-1.7069662-.1842043-.3684671-.3120068-.6842764-.3930122-.9273504l-.1795294-.5387165v-9.8595873l.047599-.2856623c-.0052066.0312474-.0042603.0241483-.0006026-.014268.0397668-.4176616.0090259-.9246538-.117527-1.3042674-.1570139-.4709856-.3392118-.60763-1.430898-.60763-1.0916861 0-1.2738841.1366444-1.430898.60763-.1265529.3796136-.1572938.8866058-.117527 1.3042674.0036577.0384163.004604.0455154-.0006026.014268l.047599.2856623v9.8595873l-.1795294.5387165c-.0810054.243074-.2088079.5588833-.3930122.9273504-.2899204.5799329-.6551723 1.1567186-1.1136682 1.7069662-1.4036054 1.6844868-3.3749966 2.7598376-5.8145044 2.7598376-2.4395079 0-4.41089909-1.0753508-5.81450445-2.7598376-.45849596-.5502476-.82374779-1.1270333-1.11366824-1.7069662-.18420433-.3684671-.31200682-.6842764-.39301221-.9273504l-.17952943-.5387165v-9.8595873l.04759906-.2856623c-.00520666.0312474-.00426035.0241483-.00060262-.014268.03976681-.4176616.00902588-.9246538-.11752703-1.3042674-.1570139-.4709856-.33921183-.60763-1.43089798-.60763-1.93299662 0-3.5-1.56700338-3.5-3.5s1.56700338-3.5 3.5-3.5c4.15956385 0 6.9781695 2.11389133 8.071602 5.39379855.4830676 1.44903045.5696007 2.87616975.4453078 4.18158915-.00501.052619-.0101941.1027343-.0154812.1502698v7.9562337c.0199987.0269849.0413729.0544004.0639687.0815179.1591178.1909596.2506284.2408766.4367456.2408766.1861171 0 .2776277-.049917.4367456-.2408766.0225957-.0271175.0439699-.054533.0639686-.0815179v-7.9562337c-.0052871-.0475355-.0104712-.0976508-.0154812-.1502698-.1242929-1.3054194-.0377598-2.7325587.4453078-4.18158915 1.0934325-3.27990722 3.9120382-5.39379855 8.071602-5.39379855 4.1595639 0 6.9781695 2.11389133 8.071602 5.39379855.4830677 1.44903045.5696007 2.87616975.4453078 4.18158915-.00501.052619-.0101941.1027343-.0154812.1502698v7.9562337c.0199987.0269849.0413729.0544004.0639687.0815179.1591178.1909596.2506284.2408766.4367456.2408766.1861171 0 .2776277-.049917.4367456-.2408766.0225957-.0271175.04397-.054533.0639687-.0815179z"/><path d="m38.7503061 2.25469388 7.3631649 9.99142852 7.1376514-9.99142852z" transform="matrix(0 -1 1 0 38.750306 53.251122)"/></g></svg>

<?xml version="1.0" encoding="UTF-8"?>
<svg width="50px" height="50px" viewBox="0 0 50 50" version="1.1" xmlns="http://www.w3.org/2000/svg" xmlns:xlink="http://www.w3.org/1999/xlink">
    <!-- Generator: Sketch 52.4 (67378) - http://www.bohemiancoding.com/sketch -->
    <title>022-itineraire</title>
    <desc>Created with Sketch.</desc>
    <g id="022-itineraire" stroke="none" stroke-width="1" fill="none" fill-rule="evenodd">
        <g id="Group" transform="translate(-0.005000, 9.997143)" fill="#000000" fill-rule="nonzero">
            <g id="046-itineraire">
                <g id="ICONSET-01">
                    <g id="046-itineraire">
                        <path d="M31.5071429,13.0014286 C31.5071429,9.15693486 33.0806461,6.32476385 35.707185,4.74891551 C36.6247452,4.19840563 37.5841321,3.85304277 38.5407232,3.66173367 C39.1353315,3.54281767 39.6348947,3.5 40.0085714,3.5 C41.9415681,3.5 43.5085714,5.06700338 43.5085714,7 C43.5085714,8.93299662 41.9415681,10.5 40.0085714,10.5 C39.9609842,10.5 39.6109358,10.5700064 39.3085293,10.7514416 C38.8091753,11.0510397 38.5071429,11.5946723 38.5071429,13.0014286 L38.5071429,22.571415 L38.3276134,23.1101315 C38.246608,23.3532055 38.1188056,23.6690148 37.9346012,24.0374819 C37.6446808,24.6174148 37.2794289,25.1942005 36.820933,25.7444481 C35.4173276,27.4289349 33.4459364,28.5042857 31.0064286,28.5042857 C28.5669207,28.5042857 26.5955295,27.4289349 25.1919242,25.7444481 C24.7334282,25.1942005 24.3681764,24.6174148 24.0782559,24.0374819 C23.8940516,23.6690148 23.7662491,23.3532055 23.6852437,23.1101315 L23.5057143,22.571415 L23.5057143,12.7118277 L23.5533133,12.4261654 C23.5481067,12.4574128 23.549053,12.4503137 23.5527107,12.4118974 C23.5924775,11.9942358 23.5617366,11.4872436 23.4351837,11.10763 C23.2781698,10.6366444 23.0959719,10.5 22.0042857,10.5 C20.9125996,10.5 20.7304016,10.6366444 20.5733877,11.10763 C20.4468348,11.4872436 20.4160939,11.9942358 20.4558607,12.4118974 C20.4595184,12.4503137 20.4604647,12.4574128 20.4552581,12.4261654 L20.5028571,12.7118277 L20.5028571,22.571415 L20.3233277,23.1101315 C20.2423223,23.3532055 20.1145198,23.6690148 19.9303155,24.0374819 C19.6403951,24.6174148 19.2751432,25.1942005 18.8166473,25.7444481 C17.4130419,27.4289349 15.4416507,28.5042857 13.0021429,28.5042857 C10.562635,28.5042857 8.59124381,27.4289349 7.18763845,25.7444481 C6.72914249,25.1942005 6.36389066,24.6174148 6.07397021,24.0374819 C5.88976588,23.6690148 5.76196339,23.3532055 5.680958,23.1101315 L5.50142857,22.571415 L5.50142857,12.7118277 L5.54902763,12.4261654 C5.54382097,12.4574128 5.54476728,12.4503137 5.54842501,12.4118974 C5.58819182,11.9942358 5.55745089,11.4872436 5.43089798,11.10763 C5.27388408,10.6366444 5.09168615,10.5 4,10.5 C2.06700338,10.5 0.5,8.93299662 0.5,7 C0.5,5.06700338 2.06700338,3.5 4,3.5 C8.15956385,3.5 10.9781695,5.61389133 12.071602,8.89379855 C12.5546696,10.342829 12.6412027,11.7699683 12.5169098,13.0753877 C12.5118998,13.1280067 12.5067157,13.178122 12.5014286,13.2256575 L12.5014286,21.1818912 C12.5214273,21.2088761 12.5428015,21.2362916 12.5653973,21.2634091 C12.7245151,21.4543687 12.8160257,21.5042857 13.0021429,21.5042857 C13.18826,21.5042857 13.2797706,21.4543687 13.4388885,21.2634091 C13.4614842,21.2362916 13.4828584,21.2088761 13.5028571,21.1818912 L13.5028571,13.2256575 C13.49757,13.178122 13.4923859,13.1280067 13.4873759,13.0753877 C13.363083,11.7699683 13.4496161,10.342829 13.9326837,8.89379855 C15.0261162,5.61389133 17.8447219,3.5 22.0042857,3.5 C26.1638496,3.5 28.9824552,5.61389133 30.0758877,8.89379855 C30.5589554,10.342829 30.6454884,11.7699683 30.5211955,13.0753877 C30.5161855,13.1280067 30.5110014,13.178122 30.5057143,13.2256575 L30.5057143,21.1818912 C30.525713,21.2088761 30.5470872,21.2362916 30.569683,21.2634091 C30.7288008,21.4543687 30.8203114,21.5042857 31.0064286,21.5042857 C31.1925457,21.5042857 31.2840563,21.4543687 31.4431742,21.2634091 C31.4657699,21.2362916 31.4871442,21.2088761 31.5071429,21.1818912 L31.5071429,13.0014286 Z" id="Shape"></path>
                        <polygon id="Path-4" transform="translate(46.000714, 7.250408) rotate(-90.000000) translate(-46.000714, -7.250408) " points="38.7503061 2.25469388 46.113471 12.2461224 53.2511224 2.25469388"></polygon>
                    </g>
                </g>
            </g>
        </g>
    </g>
</svg>
